SpaceBalls/Resources/bonuses/6.svg

<?xml version="1.0" encoding="iso-8859-1"?>
<!-- Generator: Adobe Illustrator 19.0.0, SVG Export Plug-In . SVG Version: 6.00 Build 0)  -->
<svg version="1.1" id="Capa_1" xmlns="http://www.w3.org/2000/svg" xmlns:xlink="http://www.w3.org/1999/xlink" x="0px" y="0px"
	 viewBox="0 0 497.805 497.805" style="enable-background:new 0 0 497.805 497.805;" xml:space="preserve">
<g>
	<path style="fill:#5C546A;" d="M390.288,84.418c8.427,7.25,16.286,15.139,23.511,23.587
		c46.514,39.782,76.005,98.892,76.005,164.897c0,31.53-6.735,61.485-18.833,88.516c17.156-33.793,26.833-72.023,26.833-112.516
		C497.805,111.437,386.367,0,248.902,0c-51.798,0-99.895,15.828-139.733,42.903c33.681-21.523,73.7-34.001,116.635-34.001
		C291.58,8.902,350.51,38.185,390.288,84.418z"/>
	<path style="fill:#5C546A;" d="M108.005,413.8c-8.448-7.226-16.337-15.085-23.587-23.511C38.185,350.51,8.902,291.58,8.902,225.805
		c0-42.935,12.478-82.954,34.001-116.635C15.828,149.007,0,197.105,0,248.902c0,137.465,111.437,248.902,248.902,248.902
		c40.493,0,78.723-9.677,112.516-26.833c-27.03,12.098-56.985,18.833-88.516,18.833C206.897,489.805,147.787,460.314,108.005,413.8z
		"/>
	<path style="fill:#5DCFBC;" d="M84.418,390.288C51.751,352.319,32,302.919,32,248.902c0-45.309,13.901-87.367,37.658-122.159
		c14.599-22.964,34.122-42.487,57.086-57.086C161.536,45.901,203.594,32,248.902,32c54.017,0,103.417,19.751,141.386,52.418
		C350.51,38.185,291.58,8.902,225.805,8.902c-42.935,0-82.954,12.478-116.635,34.001c-26.61,17.005-49.262,39.656-66.267,66.267
		C21.38,142.851,8.902,182.87,8.902,225.805C8.902,291.58,38.185,350.51,84.418,390.288z"/>
	<path style="fill:#FFCF00;" d="M390.288,84.418C352.319,51.751,302.919,32,248.902,32c-45.309,0-87.367,13.901-122.159,37.658
		c28.636-18.205,62.615-28.756,99.061-28.756c27.963,0,54.469,6.219,78.23,17.331c41.561,5.975,79.312,23.726,109.765,49.772
		C406.574,99.557,398.715,91.668,390.288,84.418z"/>
	<path style="fill:#FFCF00;" d="M69.658,126.744C45.901,161.536,32,203.594,32,248.902c0,54.017,19.751,103.417,52.418,141.386
		c7.25,8.427,15.139,16.286,23.587,23.511c-26.046-30.453-43.797-68.204-49.772-109.765c-11.112-23.761-17.331-50.267-17.331-78.23
		C40.902,189.359,51.453,155.379,69.658,126.744z"/>
	<path style="fill:#74749B;" d="M470.971,361.418c12.098-27.03,18.833-56.985,18.833-88.516c0-66.005-29.49-125.115-76.005-164.897
		c-30.453-26.046-68.204-43.797-109.765-49.772c24.622,11.515,46.287,28.292,63.549,48.891c8.361,7.006,16.091,14.737,23.098,23.098
		C431.157,164.14,456.902,215.06,456.902,272c0,102.119-82.784,184.902-184.902,184.902c-56.94,0-107.86-25.745-141.778-66.221
		c-8.361-7.006-16.091-14.737-23.098-23.098c-20.599-17.261-37.376-38.926-48.891-63.549c5.975,41.561,23.726,79.312,49.772,109.765
		c39.782,46.514,98.892,76.005,164.897,76.005c31.53,0,61.485-6.735,88.516-18.833C410.053,449.203,449.203,410.053,470.971,361.418
		z"/>
	<path style="fill:#FFFFFF;" d="M248.902,433.805c-45.179,0-86.565-16.212-118.681-43.124
		C164.14,431.157,215.06,456.902,272,456.902c102.119,0,184.902-82.784,184.902-184.902c0-56.94-25.745-107.86-66.221-141.778
		c26.912,32.116,43.124,73.502,43.124,118.681C433.805,351.021,351.021,433.805,248.902,433.805z"/>
	<path style="fill:#FFF294;" d="M126.744,69.658c-22.964,14.599-42.487,34.122-57.086,57.086
		c-18.205,28.636-28.756,62.615-28.756,99.061c0,27.963,6.219,54.469,17.331,78.23c11.515,24.622,28.292,46.287,48.891,63.549
		C80.212,335.468,64,294.081,64,248.902C64,146.784,146.784,64,248.902,64c45.179,0,86.565,16.212,118.681,43.124
		c-17.261-20.599-38.926-37.376-63.549-48.891c-23.761-11.112-50.267-17.331-78.23-17.331
		C189.359,40.902,155.379,51.453,126.744,69.658z"/>
	<path style="fill:#39394A;" d="M64,248.902c0,45.179,16.212,86.565,43.124,118.681c7.006,8.361,14.737,16.091,23.098,23.098
		c32.116,26.912,73.502,43.124,118.681,43.124c102.119,0,184.902-82.784,184.902-184.902c0-45.179-16.212-86.565-43.124-118.681
		c-7.006-8.361-14.737-16.091-23.098-23.098C335.468,80.212,294.081,64,248.902,64C146.784,64,64,146.784,64,248.902z"/>
</g>
<g>
</g>
<g>
</g>
<g>
</g>
<g>
</g>
<g>
</g>
<g>
</g>
<g>
</g>
<g>
</g>
<g>
</g>
<g>
</g>
<g>
</g>
<g>
</g>
<g>
</g>
<g>
</g>
<g>
</g>
</svg>

<?xml version="1.0" encoding="UTF-8" standalone="no"?>
<svg
   xmlns:dc="http://purl.org/dc/elements/1.1/"
   xmlns:cc="http://creativecommons.org/ns#"
   xmlns:rdf="http://www.w3.org/1999/02/22-rdf-syntax-ns#"
   xmlns:svg="http://www.w3.org/2000/svg"
   xmlns="http://www.w3.org/2000/svg"
   xmlns:sodipodi="http://sodipodi.sourceforge.net/DTD/sodipodi-0.dtd"
   xmlns:inkscape="http://www.inkscape.org/namespaces/inkscape"
   version="1.1"
   id="Capa_1"
   x="0px"
   y="0px"
   viewBox="0 0 497.805 497.805"
   style="enable-background:new 0 0 497.805 497.805;"
   xml:space="preserve"
   sodipodi:docname="6.svg"
   inkscape:version="1.0.1 (3bc2e813f5, 2020-09-07)"><metadata
   id="metadata57"><rdf:RDF><cc:Work
       rdf:about=""><dc:format>image/svg+xml</dc:format><dc:type
         rdf:resource="http://purl.org/dc/dcmitype/StillImage" /></cc:Work></rdf:RDF></metadata><defs
   id="defs55">
	
	
	
	
	
	
	
	
	
</defs><sodipodi:namedview
   pagecolor="#ffffff"
   bordercolor="#666666"
   borderopacity="1"
   objecttolerance="10"
   gridtolerance="10"
   guidetolerance="10"
   inkscape:pageopacity="0"
   inkscape:pageshadow="2"
   inkscape:window-width="2560"
   inkscape:window-height="1377"
   id="namedview53"
   showgrid="false"
   inkscape:zoom="2.0248893"
   inkscape:cx="248.9025"
   inkscape:cy="248.9025"
   inkscape:window-x="-8"
   inkscape:window-y="-8"
   inkscape:window-maximized="1"
   inkscape:current-layer="Capa_1" />
<path
   style="fill:#5c546a"
   d="m 390.288,84.418 c 8.427,7.25 16.286,15.139 23.511,23.587 46.514,39.782 76.005,98.892 76.005,164.897 0,31.53 -6.735,61.485 -18.833,88.516 17.156,-33.793 26.833,-72.023 26.833,-112.516 C 497.805,111.437 386.367,0 248.902,0 197.104,0 149.007,15.828 109.169,42.903 142.85,21.38 182.869,8.902 225.804,8.902 c 65.776,0 124.706,29.283 164.484,75.516 z"
   id="path2" /><path
   style="fill:#5c546a"
   d="M 108.005,413.8 C 99.557,406.574 91.668,398.715 84.418,390.289 38.185,350.51 8.902,291.58 8.902,225.805 8.902,182.87 21.38,142.851 42.903,109.17 15.828,149.007 0,197.105 0,248.902 c 0,137.465 111.437,248.902 248.902,248.902 40.493,0 78.723,-9.677 112.516,-26.833 -27.03,12.098 -56.985,18.833 -88.516,18.833 -66.005,0.001 -125.115,-29.49 -164.897,-76.004 z"
   id="path4" /><path
   style="fill:#5dcfbc"
   d="M 84.418,390.288 C 51.751,352.319 32,302.919 32,248.902 32,203.593 45.901,161.535 69.658,126.743 84.257,103.779 103.78,84.256 126.744,69.657 161.536,45.901 203.594,32 248.902,32 302.919,32 352.319,51.751 390.288,84.418 350.51,38.185 291.58,8.902 225.805,8.902 182.87,8.902 142.851,21.38 109.17,42.903 82.56,59.908 59.908,82.559 42.903,109.17 21.38,142.851 8.902,182.87 8.902,225.805 c 0,65.775 29.283,124.705 75.516,164.483 z"
   id="path6" /><path
   style="fill:#ffcf00"
   d="M 390.288,84.418 C 352.319,51.751 302.919,32 248.902,32 c -45.309,0 -87.367,13.901 -122.159,37.658 28.636,-18.205 62.615,-28.756 99.061,-28.756 27.963,0 54.469,6.219 78.23,17.331 41.561,5.975 79.312,23.726 109.765,49.772 -7.225,-8.448 -15.084,-16.337 -23.511,-23.587 z"
   id="path8" /><path
   style="fill:#ffcf00"
   d="M 69.658,126.744 C 45.901,161.536 32,203.594 32,248.902 c 0,54.017 19.751,103.417 52.418,141.386 7.25,8.427 15.139,16.286 23.587,23.511 C 81.959,383.346 64.208,345.595 58.233,304.034 47.121,280.273 40.902,253.767 40.902,225.804 c 0,-36.445 10.551,-70.425 28.756,-99.06 z"
   id="path10" /><path
   style="fill:#74749b"
   d="m 470.971,361.418 c 12.098,-27.03 18.833,-56.985 18.833,-88.516 0,-66.005 -29.49,-125.115 -76.005,-164.897 -30.453,-26.046 -68.204,-43.797 -109.765,-49.772 24.622,11.515 46.287,28.292 63.549,48.891 8.361,7.006 16.091,14.737 23.098,23.098 40.476,33.918 66.221,84.838 66.221,141.778 0,102.119 -82.784,184.902 -184.902,184.902 -56.94,0 -107.86,-25.745 -141.778,-66.221 -8.361,-7.006 -16.091,-14.737 -23.098,-23.098 -20.599,-17.261 -37.376,-38.926 -48.891,-63.549 5.975,41.561 23.726,79.312 49.772,109.765 39.782,46.514 98.892,76.005 164.897,76.005 31.53,0 61.485,-6.735 88.516,-18.833 48.635,-21.768 87.785,-60.918 109.553,-109.553 z"
   id="path12" /><path
   style="fill:#ffffff"
   d="m 248.902,433.805 c -45.179,0 -86.565,-16.212 -118.681,-43.124 33.919,40.476 84.839,66.221 141.779,66.221 102.119,0 184.902,-82.784 184.902,-184.902 0,-56.94 -25.745,-107.86 -66.221,-141.778 26.912,32.116 43.124,73.502 43.124,118.681 0,102.118 -82.784,184.902 -184.903,184.902 z"
   id="path14" /><path
   style="fill:#fff294"
   d="M 126.744,69.658 C 103.78,84.257 84.257,103.78 69.658,126.744 51.453,155.38 40.902,189.359 40.902,225.805 c 0,27.963 6.219,54.469 17.331,78.23 11.515,24.622 28.292,46.287 48.891,63.549 C 80.212,335.468 64,294.081 64,248.902 64,146.784 146.784,64 248.902,64 294.081,64 335.467,80.212 367.583,107.124 350.322,86.525 328.657,69.748 304.034,58.233 280.273,47.121 253.767,40.902 225.804,40.902 c -36.445,0 -70.425,10.551 -99.06,28.756 z"
   id="path16" /><path
   style="fill:#000000;fill-opacity:1"
   d="m 64,248.902 c 0,45.179 16.212,86.565 43.124,118.681 7.006,8.361 14.737,16.091 23.098,23.098 32.116,26.912 73.502,43.124 118.681,43.124 102.119,0 184.902,-82.784 184.902,-184.902 0,-45.179 -16.212,-86.565 -43.124,-118.681 -7.006,-8.361 -14.737,-16.091 -23.098,-23.098 C 335.468,80.212 294.081,64 248.902,64 146.784,64 64,146.784 64,248.902 Z"
   id="path18" />
<g
   id="g22">
</g>
<g
   id="g24">
</g>
<g
   id="g26">
</g>
<g
   id="g28">
</g>
<g
   id="g30">
</g>
<g
   id="g32">
</g>
<g
   id="g34">
</g>
<g
   id="g36">
</g>
<g
   id="g38">
</g>
<g
   id="g40">
</g>
<g
   id="g42">
</g>
<g
   id="g44">
</g>
<g
   id="g46">
</g>
<g
   id="g48">
</g>
<g
   id="g50">
</g>
</svg>
